X: 285
T:Sancta mater istud agas / Holy Mother! pierce me through
N: Derived from Jos2508-Sancta_mater_istud_agas.krn
C: Josquin des Prez
%%abc-version 2.0
%%abcx-abcm2ps-target-version 5.9.1 (29 Sep 2008)
%%abc-creator hum2abc beta
%%abcx-conversion-date 2019/02/12 16:15:52
%%abc-edited-by Jesse Rodin
%%abc-edited-by Victoria Chang
%%abcx-initial-encoding-date 2011/03/23/
%%humdrum-veritas 72790413
%%humdrum-veritas-data 4000814730
%%linebreak <none>
%%barnumbers 0
L: 1/4
M: 2/1
Q: 1/2=120
%%staves [1 2 3 4]
V: 1 clef=treble
V: 2 clef=treble-8
V: 3 clef=treble-8
V: 4 clef=bass
K: C
[V:1] z8 | 
[V:2] z8 | 
[V:3] z8 | 
[V:4] D,8 | 
[V:1] z8 | 
[V:2] z8 | 
[V:3] z8 | 
[V:4] D,4C,4 | 
[V:1] z8 | 
[V:2] z8 | 
[V:3] A8 | 
[V:4] D,2F,3E,D,2- | 
[V:1] z8 | 
[V:2] z8 | 
[V:3] A4G4 | 
[V:4] D,C,A,,2B,,4 | 
[V:1] z8 | 
[V:2] e8 | 
[V:3] A2c3BA2- | 
[V:4] A,,8 | 
[V:1] A4A4 | 
[V:2] e4d4 | 
[V:3] AGFEF4 | 
[V:4] z8 | 
[V:1] G4A2B2- | 
[V:2] e4c2d2 | 
[V:3] E8 | 
[V:4] z8 | 
[V:1] BAA4^G2 | 
[V:2] e2A2B4 | 
[V:3] z8 | 
[V:4] E,4E,4 | 
[V:1] A6GF | 
[V:2] A8 | 
[V:3] z4F4 | 
[V:4] A,,4D,4 | 
[V:1] E2F4ED | 
[V:2] z8 | 
[V:3] G2A4G2 | 
[V:4] C,2A,,2B,,4 | 
[V:1] C2D4^C2 | 
[V:2] z8 | 
[V:3] A2D2E4 | 
[V:4] A,,8 | 
[V:1] D8 | 
[V:2] z4A4 | 
[V:3] D8 | 
[V:4] z8 | 
[V:1] z8 | 
[V:2] A4d4- | 
[V:3] z8 | 
[V:4] D,4D,4 | 
[V:1] z8 | 
[V:2] d2c2B4 | 
[V:3] z8 | 
[V:4] G,8 | 
[V:1] z8 | 
[V:2] z4c4 | 
[V:3] z8 | 
[V:4] E,4z4 | 
[V:1] z8 | 
[V:2] d4e4- | 
[V:3] z8 | 
[V:4] F,4G,4 | 
[V:1] z8 | 
[V:2] e2d2c2B2 | 
[V:3] z8 | 
[V:4] A,6G,2 | 
[V:1] z8 | 
[V:2] A6d2- | 
[V:3] z8 | 
[V:4] F,2E,2D,4 | 
[V:1] z8 | 
[V:2] d2c2d4- | 
[V:3] z8 | 
[V:4] E,4D,4 | 
[V:1] z8 | 
[V:2] d2cBA4 | 
[V:3] z8 | 
[V:4] F,8 | 
[V:1] z8 | 
[V:2] B2c3de2 | 
[V:3] z8 | 
[V:4] E,4C,4 | 
[V:1] z8 | 
[V:2] A2B3Gc2- | 
[V:3] z8 | 
[V:4] D,4E,4 | 
[V:1] z8 | 
[V:2] cBA3GEF | 
[V:3] z8 | 
[V:4] A,,4C,4 | 
[V:1] z8 | 
[V:2] G2A4^G2 | 
[V:3] z8 | 
[V:4] B,,8 | 
[V:1] z8 | 
[V:2] A8 | 
[V:3] z4E4 | 
[V:4] A,,8- | 
[V:1] z8 | 
[V:2] z8 | 
[V:3] E4F4 | 
[V:4] A,,8 | 
[V:1] E4E4 | 
[V:2] z8 | 
[V:3] E4A4- | 
[V:4] z8 | 
[V:1] F4E4 | 
[V:2] z8 | 
[V:3] A2F2G4 | 
[V:4] z8 | 
[V:1] z4A4- | 
[V:2] z8 | 
[V:3] A4c4 | 
[V:4] z8 | 
[V:1] A2F2G4 | 
[V:2] z8 | 
[V:3] B8 | 
[V:4] z8 | 
[V:1] A8 | 
[V:2] z8 | 
[V:3] A4d4- | 
[V:4] z8 | 
[V:1] F4F4 | 
[V:2] z8 | 
[V:3] d2c2A2B2 | 
[V:4] D,4F,2G,2 | 
[V:1] E4C4 | 
[V:2] z8 | 
[V:3] c2A3GE2 | 
[V:4] A,4A,,4 | 
[V:1] D2E4DC | 
[V:2] z8 | 
[V:3] F2G2A4- | 
[V:4] z2C,4D,2 | 
[V:1] B,2A,2B,4 | 
[V:2] z8 | 
[V:3] A2^G^F^G4 | 
[V:4] E,2F,2E,4 | 
[V:1] A,8 | 
[V:2] z4e4 | 
[V:3] A8- | 
[V:4] A,,6B,,2 | 
[V:1] z8 | 
[V:2] e2f4ed | 
[V:3] A8 | 
[V:4] C,2D,4C,B,, | 
[V:1] A4A4 | 
[V:2] c3Bcde2- | 
[V:3] z8 | 
[V:4] A,,2A,4G,F, | 
[V:1] G8 | 
[V:2] ecd4^c2 | 
[V:3] G4G4 | 
[V:4] E,2D,2E,4 | 
[V:1] F4A4- | 
[V:2] d8 | 
[V:3] A6GF | 
[V:4] D,8 | 
[V:1] A2GFE2G2- | 
[V:2] z4G4- | 
[V:3] E4E4 | 
[V:4] C,8 | 
[V:1] G2FED4 | 
[V:2] G4G4 | 
[V:3] D8 | 
[V:4] B,,8 | 
[V:1] C8- | 
[V:2] A8 | 
[V:3] E8 | 
[V:4] A,,8- | 
[V:1] C8 | 
[V:2] z4e4 | 
[V:3] A8 | 
[V:4] A,,8 | 
[V:1] z8 | 
[V:2] d4e2c2 | 
[V:3] z8 | 
[V:4] z4A,4 | 
[V:1] z4A4 | 
[V:2] B4A4 | 
[V:3] z8 | 
[V:4] G,4A,2F,2 | 
[V:1] G4A2F2 | 
[V:2] z8 | 
[V:3] z4d4 | 
[V:4] E,4D,4 | 
[V:1] E4D4 | 
[V:2] A4B4 | 
[V:3] c4d2B2 | 
[V:4] z8 | 
[V:1] z8 | 
[V:2] c4d4 | 
[V:3] A4G4 | 
[V:4] A,,4B,,4 | 
[V:1] E4F4 | 
[V:2] z2c2A2d2- | 
[V:3] z4A4 | 
[V:4] C,4D,4 | 
[V:1] G4A4 | 
[V:2] dcd2e4 | 
[V:3] B4c4 | 
[V:4] z8 | 
[V:1] z4A4- | 
[V:2] f2edc4- | 
[V:3] d4e4 | 
[V:4] D,4A,4- | 
[V:1] A2A2A4 | 
[V:2] c2A2c2d2 | 
[V:3] c2c2A4 | 
[V:4] A,4F,4 | 
[V:1] G8 | 
[V:2] e8 | 
[V:3] B8 | 
[V:4] E,8 | 
[V:1] A4F2G2- | 
[V:2] z8 | 
[V:3] A4A2B2- | 
[V:4] z8 | 
[V:1] GFD2E4 | 
[V:2] z8 | 
[V:3] Bcd4^c2 | 
[V:4] z4A,4 | 
[V:1] D8 | 
[V:2] z8 | 
[V:3] d8 | 
[V:4] F,2G,2F,2G,2- | 
[V:1] z8 | 
[V:2] d4f4 | 
[V:3] z8 | 
[V:4] G,2F,E,D,4 | 
[V:1] z8 | 
[V:2] e4A2B2- | 
[V:3] z8 | 
[V:4] z2A,2F,2G,2- | 
[V:1] z8 | 
[V:2] Bcd4^c2 | 
[V:3] z8 | 
[V:4] G,F,D,2E,4 | 
[V:1] z8 | 
[V:2] d8 | 
[V:3] z8 | 
[V:4] D,8 | 
[V:1] z4E4- | 
[V:2] z4c4- | 
[V:3] z4A4- | 
[V:4] z4A,,4- | 
[V:1] E2E2F4 | 
[V:2] c2c2d4 | 
[V:3] A2A2A4 | 
[V:4] A,,2A,,2D,4 | 
[V:1] E8 | 
[V:2] c8 | 
[V:3] A8 | 
[V:4] A,,8 | 
[V:1] z4G4- | 
[V:2] z4e4- | 
[V:3] z4B4- | 
[V:4] z4E,4- | 
[V:1] G2G2A4 | 
[V:2] e2e2d4 | 
[V:3] B2B2A4 | 
[V:4] E,2E,2F,4 | 
[V:1] G8 | 
[V:2] e8 | 
[V:3] B8 | 
[V:4] E,8 | 
[V:1] z4A4- | 
[V:2] z4c4- | 
[V:3] z4A4- | 
[V:4] z4F,4- | 
[V:1] A2A2G4 | 
[V:2] c2d2e4 | 
[V:3] A2A2B3c | 
[V:4] F,2F,2E,4 | 
[V:1] F8 | 
[V:2] A8 | 
[V:3] d8 | 
[V:4] D,8 | 
[V:1] z4G4- | 
[V:2] z4e4 | 
[V:3] z4B4 | 
[V:4] z4E,4 | 
[V:1] G2G2F4 | 
[V:2] e4d4 | 
[V:3] c4A4 | 
[V:4] C,4D,4 | 
[V:1] E8- | 
[V:2] c2A4GF | 
[V:3] A8 | 
[V:4] A,,6B,,2 | 
[V:1] E8- | 
[V:2] E2A4G2 | 
[V:3] G2c2B4 | 
[V:4] C,2A,,2E,4 | 
[V:1] E8 | 
[V:2] A2c2B4 | 
[V:3] c2A4^G2 | 
[V:4] z4E,4 | 
[V:1] z4E4 | 
[V:2] c8 | 
[V:3] A8 | 
[V:4] A,,8 | 
[V:1] G8 | 
[V:2] d8 | 
[V:3] D8 | 
[V:4] B,,8 | 
[V:1] A8 | 
[V:2] c8 | 
[V:3] E8 | 
[V:4] A,,8 | 
[V:1] A4A4 | 
[V:2] z2d4cB | 
[V:3] F8 | 
[V:4] D,8 | 
[V:1] F4E4- | 
[V:2] A2B2c4- | 
[V:3] F4G4 | 
[V:4] D,4C,4 | 
[V:1] E2D2D4- | 
[V:2] c2A4G2 | 
[V:3] A4D4 | 
[V:4] A,,4B,,4 | 
[V:1] D4^C4 | 
[V:2] A8- | 
[V:3] E8 | 
[V:4] A,,8 | 
[V:1] D8- | 
[V:2] A8 | 
[V:3] D6E2 | 
[V:4] z4D,4- | 
[V:1] D8- | 
[V:2] z4_B4- | 
[V:3] F4G4- | 
[V:4] D,4G,,4 | 
[V:1] D8 | 
[V:2] B2A2F2G2 | 
[V:3] G2F2D4 | 
[V:4] _B,,8 | 
[V:1] ^C8 | 
[V:2] A8 | 
[V:3] E8 | 
[V:4] A,,8 | 
[V:1] D8 |]  
[V:2] A8 |]  
[V:3] D8 |]  
[V:4] D,8 |]  



